!!!COM:	Tinctoris, Johannes
!!!CDT:	~1435///-1511//
!!!OTL:	O invida fortuna
!!!AGN:	Song; Chanson
!!!SCT:	Tin3008
!!!SCA:	Tin3008
!!!voices:	3
**kern	**kern	**kern
*staff3	*staff2	*staff1
*Ivox	*Ivox	*Ivox
*I"Contra	*I"Tenor	*I"Superius
*I'C	*I'T	*I'S
*clefF4	*clefGv2	*clefG2
*k[]	*k[]	*k[]
*M3/1	*M3/1	*M3/1
*met(O)	*met(O)	*met(O)
=1-	=1-	=1-
2.E\	0e	0e
4F\	.	.
2G\	.	.
2A\	.	.
1D	1d	1f
=2	=2	=2
2G\	2B\	2g/
2F\	2c\	2.a/
1D	1d	.
.	.	4g/
.	.	2f/
2A\	2c\	1e
[2c\	[2A/	.
=3	=3	=3
2c\]	2A/]	2f/
2d\	2G/	2.g/
4.e\	1E	.
.	.	4f/
8d\	.	.
2.B\	.	1e
.	1F	.
8A\L	.	.
8G\J	.	.
2A\	.	2d/
=4	=4	=4
2B\	1E	0.e
2G\	.	.
2.A\	1r	.
8G\L	.	.
8F\J	.	.
1E	1G	.
=5	=5	=5
1.F	1A	1r
.	1.B	1r
1d	.	.
.	.	1g
4c\	4A/	.
4A\	4B\	.
=6	=6	=6
1A	1c	1a
0G	0d	1.b
.	.	4a/
.	.	4b\
=7	=7	=7
2C/	2.c\	0cc
2.F\	.	.
.	4B\	.
.	1A	.
4E\	.	.
2F\	.	.
[1G	2G/	[1b
.	[2d\	.
=8	=8	=8
2G\]	2d\]	2b\]
2A\	2c\	2.a/
2D\	2d\	.
.	.	4g/
2G\	2B\	1g
1D	1A	.
.	.	2f#i/
=9	=9	=9
2r	1G	0g
2d\	.	.
2.c\	1r	.
4B\	.	.
1A	[1c	1r
=10	=10	=10
2r	2c\]	1g
2G\	2B\	.
0F	1c	0a
.	1d	.
=11	=11	=11
2.E\	2.e\	1.g
4F\	8d\L	.
.	8c\J	.
2G\	2B\	.
2.F\	2A/	2.a/
.	1c	.
4G\	.	4b\
2A\	.	2cc\
=12	=12	=12
2F\	2d\	2a/
1E	2e\	1g
.	1c	.
2A\	.	1cc
1G	1d	.
.	.	2b\
=13	=13	=13
2.C/	0.c	0.cc
4D\	.	.
2E\	.	.
2.F\	.	.
4E\	.	.
2C/	.	.
=14	=14	=14
2.F\	1r	1.a
4G\	.	.
2A\	1r	.
2B\	.	4g/
.	.	4f/
[1c	[1A	1e
=15	=15	=15
2c\]	2A/]	1f
4B\	4G/	.
4A\	4F/	.
2B\	1E	1g
1c	.	.
.	1F	1a
[2d\	.	.
=16	=16	=16
2d\]	2G/	2b\
2c\	2.A/	2.cc\
2A\	.	.
.	4G/	4b\
2F\	2c\	1a
1G	1B	.
.	.	2g/
=17	=17	=17
2r	0A	0.a
2.D\	.	.
4E\	.	.
2.F\	.	.
.	1r	.
4G\	.	.
4A\	.	.
4F\	.	.
=18	=18	=18
1G	1E	1r
2A\	2F/	1r
1B	2.G/	.
.	.	1e
.	4F/	.
2c\	2E/	.
=19	=19	=19
2d\	2D/	2f/
2B\	2E/	2.g/
1c	2C/	.
.	.	4f/
.	1c	2e/
1G	.	1d
.	2B\	.
=20	=20	=20
2C/	1c	0c
2.F\	.	.
.	1r	.
4G\	.	.
4A\	.	.
4B\	.	.
[1c	[1A	1r
=21	=21	=21
2c\]	2A/]	1.e
2G\	2B\	.
2A\	2c\	.
2D\	1A	2f/
1E	.	1g
.	2G/	.
=22	=22	=22
1.F	2A/	1.a
.	1c	.
2G\	2B\	2g/
[1D	2.A/	2.f/
.	4G/	4e/
=23	=23	=23
2D\]	2A/	2f/
2d\	2G/	2.g/
2e\	2E/	.
.	.	4f/
2.B\	2G/	1e
.	1F	.
8A\L	.	.
8G\J	.	.
2A\	.	2d/
=24	=24	=24
0.Bl	0.El	0.el
==	==	==
*-	*-	*-
!!!RDF**kern: l=long note in original notation
!!!RDF**kern: i=editorial accidental
!!!ENC:	Chris Gage 01-29-2015
!!!END:	2015/03/07/
!!!EED:	Jesse Rodin
!!!EEV:	2015/03/09/
!!!ONB:	Translated from MusicXML and edited on 2015/03/09/ by Craig Sapp
!!muse2ps: C^@{COM}^i2I150v95,95,150Q16
